svg/fluentui-system-icons/ic_fluent_glance_horizontal_sparkles_24_filled.svg

<svg width="24" height="24" viewBox="0 0 24 24" fill="none" xmlns="http://www.w3.org/2000/svg">
<path d="M16.0883 6.41228C16.016 6.31886 15.9377 6.2298 15.8539 6.14569C15.5417 5.83255 15.1606 5.59666 14.741 5.45683L13.3632 5.00939C13.257 4.97196 13.165 4.90253 13.1 4.81068C13.0349 4.71883 13 4.60908 13 4.49656C13 4.38404 13.0349 4.27429 13.1 4.18244C13.165 4.09058 13.257 4.02116 13.3632 3.98372L14.741 3.53628C15.1547 3.39352 15.5299 3.15705 15.837 2.84537C16.1357 2.54224 16.3623 2.17595 16.5 1.77372L16.5114 1.73963L16.9592 0.362894C16.9967 0.256782 17.0662 0.164895 17.1581 0.0998993C17.25 0.0349035 17.3598 0 17.4724 0C17.5851 0 17.6949 0.0349035 17.7868 0.0998993C17.8787 0.164895 17.9482 0.256782 17.9857 0.362894L18.4335 1.73963C18.5727 2.15819 18.8077 2.53853 19.1198 2.85041C19.432 3.1623 19.8126 3.39715 20.2315 3.53628L21.6093 3.98372L21.6368 3.99061C21.743 4.02804 21.835 4.09747 21.9 4.18932C21.9651 4.28117 22 4.39092 22 4.50344C22 4.61596 21.9651 4.72571 21.9 4.81756C21.835 4.90942 21.743 4.97884 21.6368 5.01628L20.259 5.46372C19.8402 5.60285 19.4595 5.8377 19.1474 6.14959C18.8353 6.46147 18.6003 6.84181 18.461 7.26037L18.0132 8.63711C18.0092 8.64855 18.0048 8.65983 18 8.67093C17.9605 8.76273 17.8964 8.84212 17.8144 8.9001C17.7224 8.9651 17.6126 9 17.5 9C17.3874 9 17.2776 8.9651 17.1856 8.9001C17.0937 8.8351 17.0242 8.74322 16.9868 8.63711L16.539 7.26037C16.4378 6.95331 16.2851 6.66664 16.0883 6.41228ZM23.7829 10.2132L23.0175 9.9646C22.7848 9.8873 22.5733 9.75683 22.3999 9.58356C22.2265 9.41029 22.0959 9.199 22.0186 8.96646L21.7698 8.20161C21.749 8.14266 21.7104 8.09161 21.6593 8.0555C21.6083 8.01939 21.5473 8 21.4847 8C21.4221 8 21.3611 8.01939 21.31 8.0555C21.259 8.09161 21.2204 8.14266 21.1996 8.20161L20.9508 8.96646C20.875 9.19736 20.7467 9.40761 20.5761 9.58076C20.4055 9.75392 20.1971 9.88529 19.9672 9.9646L19.2018 10.2132C19.1428 10.234 19.0917 10.2725 19.0555 10.3236C19.0194 10.3746 19 10.4356 19 10.4981C19 10.5606 19.0194 10.6216 19.0555 10.6726C19.0917 10.7236 19.1428 10.7622 19.2018 10.783L19.9672 11.0316C20.2003 11.1093 20.412 11.2403 20.5855 11.4143C20.7589 11.5882 20.8893 11.8003 20.9661 12.0335L21.2149 12.7984C21.2357 12.8573 21.2743 12.9084 21.3254 12.9445C21.3764 12.9806 21.4374 13 21.5 13C21.5626 13 21.6236 12.9806 21.6746 12.9445C21.7257 12.9084 21.7643 12.8573 21.7851 12.7984L22.0339 12.0335C22.1113 11.801 22.2418 11.5897 22.4152 11.4164C22.5886 11.2432 22.8001 11.1127 23.0328 11.0354L23.7982 10.7868C23.8572 10.766 23.9083 10.7275 23.9445 10.6764C23.9806 10.6254 24 10.5644 24 10.5019C24 10.4394 23.9806 10.3784 23.9445 10.3274C23.9083 10.2764 23.8572 10.2378 23.7982 10.217L23.7829 10.2132ZM10.251 3.00275C11.2175 3.00275 12.001 3.78625 12.001 4.75275V9.25275C12.001 10.2192 11.2175 11.0027 10.251 11.0027H4.75098C3.78448 11.0027 3.00098 10.2192 3.00098 9.25275V4.75275C3.00098 3.78625 3.78448 3.00275 4.75098 3.00275H10.251ZM7.23856 12.9845C8.20506 12.9845 8.98856 13.7681 8.98856 14.7345V19.249C8.98856 20.2155 8.20506 20.999 7.23856 20.999H4.75098C3.78448 20.999 3.00098 20.2155 3.00098 19.249V14.7345C3.00098 13.7681 3.78448 12.9845 4.75098 12.9845H7.23856ZM19.2527 12.999C20.2192 12.999 21.0027 13.7825 21.0027 14.749V19.249C21.0027 20.2155 20.2192 20.999 19.2527 20.999H12.7527C11.7862 20.999 11.0027 20.2155 11.0027 19.249V14.749L11.0085 14.6054C11.0815 13.7061 11.8345 12.999 12.7527 12.999H19.2527Z" fill="#212121"/>
</svg>

<svg xmlns="http://www.w3.org/2000/svg" width="24" height="24"><path d="M16.088 6.412a2.844 2.844 0 0 0-1.347-.955l-1.378-.448a.544.544 0 0 1 0-1.025l1.378-.448A2.839 2.839 0 0 0 16.5 1.774l.011-.034.448-1.377a.544.544 0 0 1 1.027 0l.447 1.377a2.835 2.835 0 0 0 1.799 1.796l1.377.448.028.007a.544.544 0 0 1 0 1.025l-1.378.448a2.839 2.839 0 0 0-1.798 1.796l-.448 1.377a.544.544 0 0 1-1.026 0l-.448-1.377a2.837 2.837 0 0 0-.45-.848Zm7.695 3.801-.766-.248a1.577 1.577 0 0 1-.998-.999l-.25-.764a.302.302 0 0 0-.57 0l-.248.764a1.576 1.576 0 0 1-.984.999l-.765.248a.302.302 0 0 0 0 .57l.765.249a1.578 1.578 0 0 1 1 1.002l.248.764a.302.302 0 0 0 .57 0l.249-.764a1.576 1.576 0 0 1 .999-.999l.765-.248a.302.302 0 0 0 0-.57l-.015-.004ZM10.25 3.003c.966 0 1.75.783 1.75 1.75v4.5a1.75 1.75 0 0 1-1.75 1.75h-5.5A1.75 1.75 0 0 1 3 9.253v-4.5c0-.967.783-1.75 1.75-1.75h5.5Zm-3.012 9.982c.966 0 1.75.783 1.75 1.75v4.514a1.75 1.75 0 0 1-1.75 1.75H4.75A1.75 1.75 0 0 1 3 19.249v-4.514c0-.967.783-1.75 1.75-1.75h2.488Zm12.014.014c.966 0 1.75.784 1.75 1.75v4.5a1.75 1.75 0 0 1-1.75 1.75h-6.5a1.75 1.75 0 0 1-1.75-1.75v-4.5l.005-.144A1.75 1.75 0 0 1 12.753 13h6.5Z"/></svg>
